X:1
T:Etude Op 25 No 1
T:A Madame la Countesse d'Agoult ÉTUDE
T:Op. 25 - Nr 1
C:Chopin
%%score { ( 1 3 ) | 2 }
L:1/8
Q:1/4=104
M:4/4
K:Ab
V:1 treble nm="Piano"
V:3 treble 
V:2 bass 
V:1
"^Allegro sostenuto"!p! (e2 | %1
 (3e/A/c/(3E/!<(!A/c/ (6:4:6e/A/c/E/A/c/ (6:4:6e/A/c/E/A/c/ (6:4:6e/A/c/E/A/c/!<)! | %2
 (6:4:6f/!>(!A/c/E/A/c/ (6:4:6e/A/c/E/A/c/ (6:4:6e/A/c/E/A/c/!>)! (6:4:6e/A/c/E/A/c/) | %3
 (6:4:6(e/!<(!B/d/E/B/d/ (6:4:6e/B/d/E/B/d/!<)! (6:4:6f/!>(!B/d/E/B/d/ (6:4:6e/B/d/E/B/d/!>)! | %4
!>(! (6:4:6b/c/e/E/c/e/ (6:4:6a/c/e/E/c/!>)!e/ (6:4:6a/!<(!c/=e/=E/c/e/ (6:4:6a/c/e/E/c/e/)!<)! | %5
 (6:4:6(a/d/f/A/!<(!d/f/ (6:4:6a/d/f/A/d/f/ (6:4:6a/d/f/A/d/f/ (6:4:6b/d/f/G/d/f/!<)! | %6
 (6:4:6c'/c/f/G/c/f/ (6:4:6b/c/=e/G/c/e/ (6:4:6a/c/f/A/c/f/!>(! (6:4:6f/_c/_e/F/c/!>)!e/) | %7
!<(! (6:4:6(f/B/e/F/B/e/ (6:4:6g/B/e/F/B/!<)!e/!>(! (6:4:6a/B/=d/F/A/B/ (6:4:6B/F/A/D/F/!>)!A/ | %8
!f! (6:4:6B/E/A/_D/E/A/ (6:4:6c/E/A/B,/E/A/ (6:4:6d/E/G/B,/D/E/ (6:4:6E/B,/D/G,/B,/D/) | %9
!p! (3(e/A/c/(3E/A/c/ (6:4:6e/!<(!A/c/E/A/c/ (6:4:6e/A/c/E/A/c/ (6:4:6e/A/c/E/A/c/!<)! | %10
 (6:4:6f/!>(!A/c/E/A/c/ (6:4:6e/A/c/E/A/c/ (6:4:6e/A/c/E/A/c/ (6:4:6e/A/c/E/A/c/)!>)! | %11
!<(! (6:4:6(e/B/d/E/B/d/ (6:4:6b/B/d/E/B/d/!<)! (6:4:6c'/B/d/E/B/d/ (6:4:6g/B/d/E/B/d/ | %12
!>(! (6:4:6b/c/e/E/c/e/ (6:4:6a/c/e/E/c/e/!>)! (6:4:6a/c/=e/=E/c/e/ (6:4:6a/c/e/E/c/e/) | %13
!<(! (6:4:6(a/d/f/A/d/f/ (6:4:6a/d/f/A/d/f/ (6:4:6a/d/f/A/d/f/ (6:4:6b/d/f/G/d/f/!<)! | %14
!>(! (6:4:6c'/c/f/G/c/f/ (6:4:6g/c/f/G/c/f/!>)! (6:4:6g/c/=e/G/c/e/ (6:4:6g/c/e/G/c/e/) | %15
 (3:2:2x!<(! =e2 (3:2:2x =d2 (3:2:2x!<)! f2!>(! (3x e!>)! x | %16
 (6:4:3(x/ F2 x/ (6:4:3x/ =E2 x/ (6:4:3x/ =D2 x/ (6:4:3x/ E2 x/ | %17
 (6:4:6c/G/B/!<(!C/G/B/ (6:4:6c/G/B/C/G/B/ (6:4:6d/G/!<)!B/!>(!C/G/B/ (6:4:6c/G/B/!>)!C/G/B/ | %18
 (6:4:6c/!<(!F/B/C/F/B/ (6:4:6=d/F/A/C/F/A/ (6:4:6=e/G/c/C/G/c/ (6:4:6f/A/c/C/A/c/)!<)! | %19
 (6:4:6(_e/B/_d/E/!<(!B/d/ (6:4:6e/B/d/E/B/d/!<)! (6:4:6f/!>(!B/d/E/B/d/ (6:4:6e/B/d/E/B/d/)!>)! | %20
 (6:4:6(e/A/d/E/A/d/!<(! (6:4:6f/A/c/E/A/c/ (6:4:6g/A/c/E/A/c/ (6:4:6a/!<)!A/c/E/A/c/) | %21
 (6:4:6(g/!<(!c/e/G/c/e/ (6:4:6g/c/e/G/c/e/!<)! (6:4:6a/!>(!c/=d/A/c/d/ (6:4:6f/=B/!>)!d/F/B/d/) | %22
 (6:4:6(=e/G/c/=E/!<(!G/c/ (6:4:6=d/_A/=B/=D/A/B/ (6:4:6f/A/!<)!B/F/!>(!A/B/ (6:4:6e/A/B/!>)!=E/A/B/) | %23
 (6:4:6(=e/G/c/!<(!=E/G/c/ (6:4:6=d/^G/=B/=D/G/B/!<)! (6:4:6f/!>(!G/B/F/G/B/!>)! (6:4:6e/G/B/E/G/B/) | %24
!<(! (6:4:6(=e/=A/^c/=E/A/c/"^ritenuto" (6:4:6=d/A/=B/=D/A/B/!<)! (6:4:6^f/!>(!A/B/^F/A/B/ (6:4:6e/^G/d/E/G/d/)!>)! | %25
"^(a tempo)" (6:4:6(=e/!<(!=A/^c/=E/A/c/ (6:4:6=a/c/e/A/c/e/ (6:4:6=b/^d/^f/A/d/f/ (6:4:6=c'/_e/_g/_A/e/g/)!<)! | %26
 (6:4:6(c'/_d/!<(!=f/F/d/f/ (6:4:6_b/d/f/F/d/f/ (6:4:6d'/B/d/F/B/!<)!d/ (6:4:6f/B/d/F/B/d/) | %27
 (6:4:6(b/!<(!c/e/E/c/e/ (6:4:6a/c/e/E/c/e/!<)! (6:4:6c'/A/c/E/A/c/ (6:4:6e/A/c/E/A/c/) | %28
 (6:4:6(e/!<(!G/B/D/G/B/ (6:4:6=e/G/B/D/G/B/ (6:4:6f/G/B/D/!<)!G/B/ (6:4:6_e/G/B/D/G/B/ | %29
 (6:4:6d/!>(!F/A/D/F/A/ (6:4:6c/F/A/C/F/A/!>)! (6:4:6c/E/F/C/E/F/!>(! (6:4:6c'/e/!>)!f/c/e/f/) | %30
 (6:4:6(c'/d/f/F/d/f/ (6:4:6b/d/f/F/d/f/ (6:4:6d'/!>(!B/d/_F/B/d/ (6:4:6_f/B/d/F/B/d/)!>)! | %31
 (6:4:6(b/!<(!c/e/E/c/e/ (6:4:6a/c/e/E/c/e/ (6:4:6c'/A/!<)!c/E/A/c/!>(! (6:4:6e/A/c/E/A/c/)!>)! | %32
!<(! (6:4:6(e/=A/c/E/A/c/ (6:4:6f/A/c/E/A/c/!<)! (6:4:6_g/A/c/E/A/c/ (6:4:6f/A/c/F/A/c/) | %33
 (6:4:6(f/B/d/E/B/d/ (6:4:6=g/B/d/F/B/d/ (6:4:6a/=B/=d/F/B/d/ (6:4:6g/B/d/G/B/d/) | %34
 (6:4:6(g/c/e/G/c/e/ (6:4:6a/c/e/A/c/e/"^appassionato" (6:4:6=a/c/e/=A/c/e/ (6:4:6_g'/a/c'/e/a/c'/ | %35
 (6:4:6f'/f/_a/B/f/a/ (6:4:6b/f/a/B/f/a/ (6:4:6_d'/_f/a/B/f/a/ (6:4:6=g/d/e/G/d/e/) | %36
 (6:4:6(a/A/!p!c/E/A/c/ (6:4:6e/A/c/E/!<(!A/c/ (6:4:6e/A/c/E/A/c/ (6:4:6e/A/c/E/A/c/!<)! | %37
!>(! (6:4:6f/B/d/E/B/d/!>)! (6:4:6e/B/d/E/B/d/ (6:4:6c'/B/d/E/B/d/ (6:4:6g/B/d/E/B/d/ | %38
 (6:4:6a/)(A/c/E/A/c/ (6:4:6e/A/c/E/A/c/!<(! (6:4:6e/A/c/E/A/c/ (6:4:6e/A/c/E/A/c/!<)! | %39
!>(! (6:4:6f/B/d/E/!>)!B/d/ (6:4:6e/!pp!B/d/E/B/d/ (6:4:6f'/B/d/E/B/d/ (6:4:6g/B/d/E/B/d/ | %40
 (6:4:6a/A/c/E/A/c/) (6:4:6(e/A/c/E/A/c/ (6:4:6f/A/c/E/A/c/ (6:4:6e/A/c/E/A/c/ | %41
 (6:4:6d/E/A/D/E/A/ (6:4:6c/E/A/C/E/A/ (6:4:6d/E/A/D/E/A/ (6:4:6c/E/A/C/E/A/ | %42
 (6:4:6B/C/E/B,/C/E/ (6:4:6A/C/E/A,/C/E/ (6:4:6B/C/E/B,/C/E/ (6:4:6A/C/E/A,/C/E/ | %43
 (6:4:6B/C/E/B,/C/E/ (6:4:6A/C/E/A,/C/E/ (6:4:6B/C/E/B,/C/E/ (6:4:6A/C/E/A,/C/E/ | %44
!pp! (6:4:6z/[I:staff +1] C,/E,/A,/"_leggierissimo"[I:staff -1]C/E/ (6:4:6A/c/e/!8va(!a/c'/e'/ (6:4:6a'/e'/c'/a/e/c/ (6:4:6A/c/e/a/c'/e'/ | %45
 (6:4:6a'/e'/c'/a/e/c/ (6:4:6A/c/e/a/c'/e'/ (6:4:6a'/e'/c'/a/e/c/ (6:4:6A/c/e/a/c'/e'/ | %46
 (6:4:6a'/e'/c'/a/e/c/!8va)!"^Loco" (6:4:6A/!<(!c/a/c'/a/c/ (6:4:6A/c/a/c'/a/c/ (6:4:6A/c/a/c'/a/c/!<)! | %47
 (6:4:6A/!>(!c/a/c'/a/c/ (6:4:6A/c/a/c'/a/c/ (6:4:6A/c/a/c'/a/c/!>)! (6:4:6A/c/a/c'/a/c/) | %48
 .A2 (.[ae'a']2 z2 [Ec]2 | !arpeggio![CA]8) |] %50
V:2
 z2 | %1
!ped! (3A,,,/E,/A,/(3C/A,/E,/ (6:4:6A,,/E,/A,/C/A,/E,/ (6:4:6A,,/E,/A,/C/A,/E,/ (6:4:6A,,/E,/A,/C/A,/E,/ | %2
 (6:4:6A,,/E,/A,/C/A,/!ped-up!E,/!ped! (6:4:6A,,/E,/A,/C/A,/E,/ (6:4:6A,,/E,/A,/C/A,/E,/ (6:4:6A,,/E,/A,/C/A,/E,/!ped-up! | %3
!ped! (6:4:6A,,/E,/G,/D/G,/E,/ (6:4:6A,,/E,/G,/D/G,/E,/ (6:4:6A,,/E,/G,/D/G,/E,/ (6:4:6A,,/E,/G,/D/G,/E,/!ped-up! | %4
!ped! (6:4:6A,,/E,/A,/C/A,/E,/ (6:4:6A,,/E,/A,/C/A,/!ped-up!E,/!ped! (6:4:6A,,/=E,/A,/C/A,/E,/ (6:4:6A,,/E,/A,/C/A,/E,/!ped-up! | %5
!ped! (3D,,/A,/D/(3F/D/A,/ (6:4:6D,/A,/D/F/D/A,/ (6:4:6D,/A,/D/F/D/!ped-up!A,/!ped! (6:4:6D,/G,/D/F/D/G,/!ped-up! | %6
!ped! (6:4:6C,/G,/C/F/C/!ped-up!G,/!ped! (6:4:6C,/G,/C/=E/C/!ped-up!G,/!ped! (6:4:6F,/A,/C/F/C/!ped-up!A,/!ped! (6:4:6!>!_C,/F,/A,/_E/A,/!ped-up!F,/ | %7
!ped! (6:4:6B,,/F,/A,/E/A,/F,/ (6:4:6B,,/F,/A,/E/A,/!ped-up!F,/!ped! (6:4:6B,,/F,/A,/=D/A,/F,/ (6:4:6B,,/F,/A,/B,/A,/F,/!ped-up! | %8
!ped! (6:4:6E,,/B,,/E,/B,/E,/!ped-up!B,,/!ped! (6:4:6E,,/B,,/E,/A,/E,/!ped-up!B,,/!ped! (6:4:6E,,/B,,/E,/G,/E,/B,,/ (6:4:6E,,/B,,/D,/E,/D,/B,,/!ped-up! | %9
!ped! (3A,,,/E,/A,/(3C/A,/E,/ (6:4:6A,,/E,/A,/C/A,/E,/ (6:4:6A,,/E,/A,/C/A,/E,/ (6:4:6A,,/E,/A,/C/A,/E,/ | %10
 (6:4:6A,,/E,/A,/C/A,/!ped-up!E,/!ped! (6:4:6A,,/E,/A,/C/A,/E,/ (6:4:6A,,/E,/A,/C/A,/E,/ (6:4:6A,,/E,/A,/C/A,/E,/!ped-up! | %11
!ped! (6:4:6A,,/E,/G,/D/G,/E,/ (6:4:6A,,/E,/G,/D/G,/!ped-up!E,/!ped! (6:4:6A,,/E,/G,/D/G,/E,/ (6:4:6A,,/E,/G,/D/G,/E,/!ped-up! | %12
!ped! (6:4:6A,,/E,/A,/C/A,/E,/ (6:4:6A,,/E,/A,/C/A,/!ped-up!E,/!ped! (6:4:6A,,/=E,/A,/C/A,/E,/ (6:4:6A,,/E,/A,/C/A,/E,/!ped-up! | %13
!ped! (3D,,/A,/D/(3F/D/A,/ (6:4:6D,/A,/D/F/D/A,/ (6:4:6D,/A,/D/F/D/!ped-up!A,/!ped! (6:4:6D,/G,/D/F/D/G,/!ped-up! | %14
!ped! (6:4:6C,/G,/C/F/C/G,/ (6:4:6C,/G,/C/F/C/!ped-up!G,/!ped! (6:4:6C,/G,/C/=E/C/G,/ (6:4:6C,/G,/C/E/C/G,/!ped-up! | %15
!ped! (6:4:6G,,/=D,/G,/=B,/G,/!ped-up!D,/!ped! (6:4:6G,,/D,/G,/B,/G,/D,/ (6:4:6G,,/D,/G,/=D/G,/!ped-up!D,/!ped! (6:4:6G,,/D,/G,/D/G,/D,/!ped-up! | %16
!ped! (6:4:6C,,/G,,/C,/G,/C,/!ped-up!G,,/!ped! (6:4:6C,,/G,,/C,/G,/C,/!ped-up!G,,/!ped! (6:4:6C,,/G,,/C,/G,/C,/!ped-up!G,,/!ped! (3C,,/G,,/C,/G,/C,/!ped-up! | %17
!ped! =E,,/C,/B,/C,/ E,,/C,/B,/C,/!ped-up!!ped! E,,/C,/B,/C,/!ped-up!!ped! E,,/C,/B,/C,/!ped-up! | %18
!ped! F,,/C,/B,/C,/!ped-up!!ped! F,,/C,/A,/C,/!ped-up!!ped! F,,/C,/G,/C,/!ped-up!!ped! F,,/C,/F,/C,/!ped-up! | %19
!ped! G,,/_E,/_D/E,/ G,,/E,/D/E,/!ped-up!!ped! G,,/E,/D/E,/!ped-up!!ped! G,,/E,/D/E,/!ped-up! | %20
!ped! A,,/E,/D/E,/!ped-up!!ped! A,,/E,/C/E,/!ped-up!!ped! A,,/E,/B,/E,/!ped-up!!ped! A,,/E,/A,/E,/!ped-up! | %21
!ped! E,,/G,/C/G,/ C,/G,/C/G,/!ped-up!!ped! F,,/=D,/C/D,/!ped-up!!ped! G,,/D,/(3=B,/G,/D,/!ped-up! | %22
!ped! (6:4:6C,/=E,/G,/C/G,/E,/!ped-up!!ped! (6:4:6C,/F,/_A,/=B,/A,/F,/ (6:4:6C,/F,/A,/=D/A,/!ped-up!F,/!ped! (6:4:6C,/E,/A,/D/A,/E,/!ped-up! | %23
!ped! (6:4:6C,/=E,/G,/C/G,/!ped-up!E,/!ped! (6:4:6=B,,/F,/^G,/=B,/G,/F,/ (6:4:6B,,/F,/G,/=D/G,/!ped-up!F,/!ped! (6:4:6B,,/E,/G,/D/G,/E,/!ped-up! | %24
!ped! (6:4:6=A,,/=E,/=A,/^C/A,/E,/!ped-up!!ped! (6:4:6A,,/^F,/A,/=B,/A,/F,/ (6:4:6A,,/F,/A,/=D/A,/F,/ (6:4:6A,,/E,/^G,/D/G,/E,/!ped-up! | %25
!ped! (6:4:6=A,,/=E,/=A,/^C/A,/E,/ (6:4:6A,,/E,/A,/C/A,/E,/!ped-up!!ped! (6:4:6A,,/^D,/^F,/=C/F,/D,/!ped-up!!ped! (6:4:6_A,,/_E,/_G,/C/G,/E,/!ped-up! | %26
!f!!ped! (6:4:6_D,,/_A,/_B,/D/B,/A,/!ped-up!!ped! (6:4:6D,/A,/B,/D/B,/A,/ (6:4:6D,,/A,/B,/D/B,/A,/ (6:4:6D,/A,/B,/D/B,/A,/!ped-up! | %27
!ped! (6:4:6E,,/E,/A,/C/A,/!ped-up!E,/!ped! (6:4:6C,/E,/A,/C/A,/E,/ (6:4:6E,,/E,/A,/C/A,/E,/ (6:4:6C,/E,/A,/C/A,/E,/!ped-up! | %28
!ped! (6:4:6E,,/E,/G,/E/G,/E,/ (6:4:6B,,/E,/G,/E/G,/!ped-up!E,/!ped! (6:4:6E,,/E,/G,/E/G,/!ped-up!E,/!ped! (6:4:6B,,/E,/G,/E/G,/E,/!ped-up! | %29
!ped! F,,/F,/A,/F,/ C,/F,/(3A,/F,/!ped-up!C,/!ped! F,,/F,/=A,/F,/ C,/F,/(3A,/F,/C,/!ped-up! | %30
!ped! (6:4:6B,,,/F,/B,/D/B,/!ped-up!F,/!ped! (6:4:6B,,/F,/B,/D/B,/!ped-up!F,/!ped! (6:4:6B,,,/_F,/A,/D/A,/F,/ (6:4:6B,,/F,/A,/D/A,/F,/!ped-up! | %31
!ped! (6:4:6E,,/E,/A,/C/A,/E,/ (6:4:6C,/E,/A,/C/A,/E,/ (6:4:6E,,/E,/A,/C/A,/E,/ (6:4:6C,/E,/A,/C/A,/E,/!ped-up! | %32
!ped! E,,/=A,/C/A,/ E,/A,/(3C/A,/E,/!ped-up!!ped! E,,/"^cresc -"A,/C/A,/!ped-up!!ped! E,/A,/(3E/A,/E,/!ped-up! | %33
!ped! E,,/B,/E/B,/ E,/B,/(3D/B,/!ped-up!E,/"^- scen -"!ped! E,,/=B,/=D/B,/ E,/B,/(3A/B,/E,/!ped-up! | %34
!ped! E,,/C/G/C/ E,/C/(3E/C/E,/!ped-up!!ped! E,,/C/_G/C/"^- do" (6:4:6E,/C/E/=A/E/C/!ped-up! | %35
!ped! (6:4:6E,/B,/=D/_A/D/B,/ (6:4:6E,/B,/D/A/D/B,/!ped-up!!ped! (6:4:6E,/B,/_D/A/D/B,/ (6:4:6E,/B,/D/E/D/B,/!ped-up! | %36
!ped! (6:4:6A,,/E,/A,/C/A,/!ped-up!E,/!ped! (6:4:6A,,/E,/A,/C/A,/E,/ (6:4:6A,,/E,/A,/C/A,/E,/ (6:4:6A,,/E,/A,/C/A,/E,/!ped-up! | %37
!ped! (6:4:6A,,/E,/G,/D/G,/!ped-up!E,/!ped! (6:4:6A,,/E,/G,/D/G,/E,/ (6:4:6A,,/E,/G,/D/G,/E,/ (6:4:6A,,/E,/G,/D/G,/E,/!ped-up! | %38
!ped! (6:4:6A,,/E,/A,/C/A,/!ped-up!E,/!ped! (6:4:6A,,/E,/A,/C/A,/E,/ (6:4:6A,,/E,/A,/C/A,/E,/ (6:4:6A,,/E,/A,/C/A,/E,/!ped-up! | %39
!ped! (6:4:6A,,/E,/G,/D/G,/!ped-up!E,/!ped! (6:4:6A,,/E,/G,/D/G,/E,/ (6:4:6A,,/E,/G,/D/G,/E,/ (6:4:6A,,/E,/G,/D/G,/E,/!ped-up! | %40
!ped! (6:4:6A,,/E,/A,/C/A,/!ped-up!E,/!ped! (6:4:6A,,/E,/A,/C/A,/E,/ (6:4:6A,,/"^dim.          -           -"E,/A,/C/A,/!ped-up!E,/!ped! (6:4:6A,,/E,/A,/C/A,/E,/!ped-up! | %41
"^-          -          -          -          -          -          -          -          -          -          -          smorz."!ped! (6:4:6E,,/A,,/E,/A,/E,/!ped-up!A,,/!ped! (6:4:6E,,/A,,/E,/A,/E,/!ped-up!A,,/!ped! (6:4:6E,,/A,,/E,/A,/E,/A,,/!ped-up!!ped! (6:4:6E,,/A,,/E,/A,/E,/A,,/!ped-up! | %42
!ped! (6:4:6A,,,/E,,/A,,/E,/A,,/E,,/ (6:4:6A,,,/E,,/A,,/E,/A,,/E,,/ (6:4:6A,,,/E,,/A,,/E,/A,,/E,,/ (6:4:6A,,,/E,,/A,,/E,/A,,/E,,/ | %43
 (6:4:6A,,,/E,,/A,,/E,/A,,/E,,/ (6:4:6A,,,/E,,/A,,/E,/A,,/E,,/ (6:4:6A,,,/E,,/A,,/E,/A,,/E,,/ (6:4:6A,,,/E,,/A,,/E,/A,,/E,,/!ped-up! | %44
!ped! (6:4:6A,,,/E,,/A,,/C,/E,/A,/[K:treble] (6:4:6C/E/A/c/e/a/ (6:4:6c'/a/e/c/A/E/ (6:4:6A,/E/A/c/e/a/ | %45
 (6:4:6c'/a/e/c/A/E/ (6:4:6A,/E/A/c/e/a/ (6:4:6c'/a/e/c/A/E/ (6:4:6A,/E/A/c/e/a/ | %46
 (6:4:6c'/a/e/c/A/E/ (6:4:6A,/E/A/e/A/E/ (6:4:6A,/E/A/e/A/E/ (6:4:6A,/E/A/e/A/E/ | %47
 (6:4:6A,/E/A/e/A/E/ (6:4:6A,/E/A/e/A/E/ (6:4:6A,/E/A/e/A/E/ (6:4:6A,/E/!ppp!A/e/A/E/ | %48
 .A,2[K:bass] [A,,E,C]2!ped-up!!ped! z2{=D,,E,,} (TE,,2!ped-up! | %49
!ped! !arpeggio![A,,,A,,E,]8)!ped-up! |] %50
V:3
 x2 | x8 | x8 | x8 | x8 | x8 | x8 | x8 | x8 | x8 | x8 | x8 | x8 | x8 | x8 | %15
 (6:4:6(g/=B/=e/F/B/e/ (6:4:6g/B/=d/F/B/d/ (6:4:6g/B/f/F/B/f/ (6:4:6g/B/e/F/B/e/) | %16
 (6:4:6=d/F/G/C/F/G/ (6:4:6c/=E/G/C/E/G/ (6:4:6c/=D/G/C/D/G/ (6:4:6c/E/G/C/E/G/ | x8 | x8 | x8 | %20
 x8 | x8 | x8 | x8 | x8 | x8 | x8 | x8 | x8 | x8 | x8 | x8 | x8 | x8 | x8 | x8 | x8 | x8 | x8 | %39
 x8 | x8 | x8 | x8 | x8 | x3!8va(! x5 | x8 | x2!8va)! x6 | x8 | x8 | x8 |] %50

